source/images/icons/icon-editorial/vente-garage.svg

<?xml version="1.0" encoding="UTF-8"?>
<svg width="80px" height="80px" viewBox="0 0 80 80" version="1.1" xmlns="http://www.w3.org/2000/svg" xmlns:xlink="http://www.w3.org/1999/xlink">
    <!-- Generator: Sketch 55.2 (78181) - https://sketchapp.com -->
    <title>Illustrative Icons/Vente-garage</title>
    <desc>Created with Sketch.</desc>
    <g id="Illustrative-Icons/Vente-garage" stroke="none" stroke-width="1" fill="none" fill-rule="evenodd">
        <path d="M24.735116,47.4398937 L24.7053763,49.302406 C24.6899456,50.2687766 23.8874733,51.0397697 22.9130037,51.0244674 C21.9385344,51.009165 21.1610799,50.213362 21.1765104,49.2469912 L21.2014539,47.6848556 L18.5293081,49.0124083 L18.5293081,62.0496117 L27.8819747,62.0496117 L27.8819747,49.010255 L24.735116,47.4398937 Z M21.2644606,43.7389335 L21.3048817,41.2074831 C21.3126109,36.9225699 24.7025527,33.1748082 28.9407672,33.1748082 C29.9153586,33.1748082 30.7054213,33.9583047 30.7054213,34.9247963 C30.7054213,35.891288 29.9153586,36.6747844 28.9407672,36.6747844 C26.7388119,36.6747844 24.8341765,38.7834681 24.8341765,41.2221671 L24.8339553,41.2498745 L24.7971842,43.5527423 L30.4398479,46.3685725 C31.0354619,46.6657987 31.4112829,47.2705673 31.4112829,47.9317989 L31.4112829,63.7995998 C31.4112829,64.7660914 30.6212203,65.5495878 29.6466288,65.5495878 L16.7646541,65.5495878 C15.7900625,65.5495878 15,64.7660914 15,63.7995998 L15,47.9317989 C15,47.2694438 15.3770861,46.6638487 15.9742463,46.3671727 L21.2644606,43.7389335 Z M53.3641277,71.6039987 C54.2805489,71.9329062 54.7545883,72.9362701 54.4229245,73.8450749 C54.0912606,74.7538798 53.0794879,75.2239794 52.1630667,74.8950722 L43.3397963,71.7283634 C42.6411117,71.4776027 42.1756728,70.8196854 42.1756728,70.0828268 L42.1756728,44.1997332 C42.1756728,43.2332415 42.9657354,42.4497451 43.9403268,42.4497451 C44.9149183,42.4497451 45.7049809,43.2332415 45.7049809,44.1997332 L45.7049809,68.8550989 L53.3641277,71.6039987 Z M29.7688045,41.574751 C28.794213,41.574751 28.0041504,40.7912546 28.0041504,39.824763 C28.0041504,38.8582713 28.794213,38.0747749 29.7688045,38.0747749 L37.4111068,38.0747749 C38.3856982,38.0747749 39.1757608,38.8582713 39.1757608,39.824763 L39.1757608,70.0424677 C39.1757608,70.7767148 38.713566,71.432884 38.0183895,71.6855655 L29.1951191,74.8926332 C28.2800562,75.2252389 27.2663614,74.759229 26.9309684,73.8517711 C26.5955753,72.9443132 27.0654907,71.9390432 27.9805536,71.6064377 L35.6464527,68.8200492 L35.6464527,41.574751 L29.7688045,41.574751 Z M30.7162977,8.49997618 L19.1319125,40.5895998 C18.8034239,41.499538 17.7932986,41.9731092 16.8757345,41.6473507 C15.9581705,41.3215922 15.4806303,40.3198621 15.8091189,39.4099237 L27.8123194,6.16015009 C28.0635162,5.46431618 28.7284417,5 29.4737162,5 L52.232244,5 C52.9775458,5 53.6424895,5.46434968 53.8936658,6.1602196 L65.8952705,39.4099932 C66.3067128,40.5498712 65.4546992,41.7497498 64.2338487,41.7497498 L48.7056455,41.7497498 C47.731054,41.7497498 46.9409914,40.9662534 46.9409914,39.9997618 C46.9409914,39.0332701 47.731054,38.2497737 48.7056455,38.2497737 L61.7278846,38.2497737 L50.9896067,8.49997618 L30.7162977,8.49997618 Z M45.5285155,39.824763 C45.5285155,40.6946056 44.8174593,41.3997522 43.9403268,41.3997522 C43.0631944,41.3997522 42.3521382,40.6946056 42.3521382,39.824763 C42.3521382,38.9549203 43.0631944,38.2497737 43.9403268,38.2497737 C44.8174593,38.2497737 45.5285155,38.9549203 45.5285155,39.824763 Z" id="Shape" fill="#ADB5BD"></path>
    </g>
</svg>

<svg width="80" height="80">
    <title>
        Illustrative Icons/Vente-garage
    </title>
    <path d="M24.735 47.44l-.03 1.862a1.758 1.758 0 0 1-1.792 1.722 1.757 1.757 0 0 1-1.736-1.777l.024-1.562-2.672 1.327V62.05h9.353V49.01l-3.147-1.57zm-3.47-3.701l.04-2.532c.008-4.284 3.398-8.032 7.636-8.032.974 0 1.764.783 1.764 1.75 0 .966-.79 1.75-1.764 1.75-2.202 0-4.107 2.108-4.107 4.547v.028l-.037 2.303 5.643 2.816c.595.297.971.902.971 1.563V63.8c0 .966-.79 1.75-1.764 1.75H16.765A1.757 1.757 0 0 1 15 63.8V47.932c0-.663.377-1.268.974-1.565l5.29-2.628zm32.1 27.865a1.746 1.746 0 0 1 1.058 2.241 1.769 1.769 0 0 1-2.26 1.05l-8.823-3.167a1.75 1.75 0 0 1-1.164-1.645V44.2c0-.967.79-1.75 1.764-1.75.975 0 1.765.783 1.765 1.75v24.655l7.66 2.749zm-23.596-30.03a1.757 1.757 0 0 1-1.765-1.75c0-.966.79-1.75 1.765-1.75h7.642c.975 0 1.765.784 1.765 1.75v30.218a1.75 1.75 0 0 1-1.158 1.644l-8.823 3.207a1.769 1.769 0 0 1-2.264-1.041 1.746 1.746 0 0 1 1.05-2.246l7.665-2.786V41.575H29.77zM30.716 8.5L19.132 40.59a1.769 1.769 0 0 1-2.256 1.057 1.746 1.746 0 0 1-1.067-2.237L27.812 6.16A1.764 1.764 0 0 1 29.474 5h22.758c.746 0 1.41.464 1.662 1.16l12.001 33.25c.412 1.14-.44 2.34-1.661 2.34H48.706A1.757 1.757 0 0 1 46.94 40c0-.967.79-1.75 1.765-1.75h13.022L50.99 8.5H30.716zM45.53 39.825c0 .87-.712 1.575-1.589 1.575a1.582 1.582 0 0 1-1.588-1.575c0-.87.711-1.575 1.588-1.575.877 0 1.589.705 1.589 1.575z" fill="#ADB5BD" fill-rule="evenodd"/>
</svg>
